X: 67
T: The Change Assembly
R: reel
M: C|
L: 1/8
Z: 2012 John Chambers <jc:trillian.mit.edu>
B: Saml. Ann & Peter Thompson "Twenty Four Country Dances for the Year 1791", London 1791, p.34 #1
K: D
% - - - - - - - - - - - - - - - - - - - - - - - - -
|:\
d2fd ceAc | d2fd ceAc | defg agfe | gfed dcBA |
d2fd ceAc | d2fd ceAc | defg fedc | Bdce d2D2 :|
|:\
Adcd efge | gfed dcBA | Adcd efge | fedc d2D2 |
Adcd efge | gfed dcBA | Adcd efge | fedc d4 :|
% - - - - - - - - Dance description - - - - - - - -
%%begintext align
%% Cast off two Cu: up again .|.
%% lead down the middle up again and cast off :|.
%% turn corners .|:
%% lead out sides :|:
%%endtext

%%sep 1 1 500
%%sep 1 1 500
